X: 1
T: B\"olli-Olli sottiisi
T: B\"ol-Olle schottis
O: trad, all Scandinavia
Z: 2013 John Chambers <jc:trillian.mit.edu>
N: This is a 3-part Finnish version of a widely-played tune; the middle part isn't often used.
M: 2/4
L: 1/16
K: Bm
   F2 | "Bm"Bcde f2f2 | f2ed B2Bd | "A"c2A2 c2dc |1,3 "Bm"Bcdc B2 :|2,4 "Bm"B2BA "^fine"B2 :|
|: A2 | "D"f2fe "(Bm)"d2dc | "G"B2BA "(Em)"G2GF | "A7"E2c2 cABc |1,3 "D"dcde f2 :|2,4 "D"d2dc d2 :|
|: A2 | "D"A2fe d2AF | "G"G2B2 B2ed | "A"c2c2 c2fe |1,3 "D"d2cB A2 :|2 "D"d2dc d2 :|4 "D"d2dc d2dc :|
